!!!OTL: IN DER HEIMATH IST ES SCHOEN
!!!ARE: Europa, Mitteleuropa, Deutschland
!!!SCT: B0528
!!!YEM: Copyright 1995, estate of Helmut Schaffrath.
**kern
*ICvox
*Ivox
*M3/4
*k[f#c#]
*D:
{8.F#
16G
=1
4.A
8F#
8.d
16cn
=2
2B}
{8B
8A
=3
4.G
8F#
8.G
16B
=4
2A}
{8.F#
16G
=5
4.A
8F#
8.d
16c#
=6
8c#
8B
4B}
{8B
8d
=7
4.cn
8A
12G#
12A
12B
=8
8B
8A
8.A
16G}
{8.F#
16G
=9
4.A
8B
8c#
8d
=10
2B}
{8.d
16B
=11
4B
4A
8c#
8e
=12
2d}
{12d
12c#
12B
=13
8.B
16A
4A
12A
12c#
12e
=14
2d}
==
!!!AGN: Wander -, Heimat - Lied
!!!ONB: ESAC (Essen Associative Code) Database: BOEHME
!!!AMT: simple triple
!!!AIN: vox
!!!EED: Helmut Schaffrath
!!!EEV: 1.0
*-
